flaticon/household/mixer-1.svg

<svg xmlns="http://www.w3.org/2000/svg" width="32" height="32" viewBox="0 0 24 24">
    <path d="M 5.601562 8.800781 C 4.71875 8.800781 4 9.519531 4 10.398438 C 4 11.28125 4.71875 12 5.601562 12 C 6.480469 12 7.199219 11.28125 7.199219 10.398438 C 7.199219 9.519531 6.480469 8.800781 5.601562 8.800781 Z M 5.601562 11.199219 C 5.160156 11.199219 4.800781 10.839844 4.800781 10.398438 C 4.800781 9.957031 5.160156 9.601562 5.601562 9.601562 C 6.042969 9.601562 6.398438 9.957031 6.398438 10.398438 C 6.398438 10.839844 6.042969 11.199219 5.601562 11.199219 Z M 5.601562 11.199219"/>
    <path d="M9.199219 8C9.199219 7.691406 9.195312 7.386719 9.179688 7.085938 9.089844 4.75 8.65625 3.03125 8.039062 1.871094L7.8125 1.421875 7.789062 1.441406C7.15625.46875 6.375 0 5.601562 0 4.824219 0 4.042969.464844 3.410156 1.445312L3.386719 1.421875 3.148438 1.890625C2.539062 3.054688 2.109375 4.773438 2.019531 7.097656 2.007812 7.398438 2 7.707031 2 8.019531 2 8.136719 2.007812 8.257812 2.015625 8.386719 2.023438 8.535156 2.039062 8.6875 2.0625 8.835938L2.113281 9.28125 2.136719 9.269531C2.320312 10.117188 2.675781 10.929688 3.207031 11.671875L3.339844 11.855469C4.035156 12.820312 4.398438 13.957031 4.398438 15.140625L4.398438 19.152344C3.289062 19.839844 2.425781 21.484375 2.121094 23.542969L2.054688 24 3.199219 24 3.199219 23.601562C3.199219 23.160156 3.558594 22.800781 4 22.800781 4.359375 22.800781 4.675781 23.042969 4.773438 23.386719 4.871094 23.753906 5.183594 24 5.546875 24L5.652344 24C6.015625 24 6.328125 23.753906 6.429688 23.386719 6.523438 23.042969 6.839844 22.800781 7.199219 22.800781 7.640625 22.800781 8 23.160156 8 23.601562L8 24 9.144531 24 9.078125 23.542969C8.773438 21.484375 7.914062 19.835938 6.800781 19.152344L6.800781 15.140625C6.800781 13.957031 7.164062 12.820312 7.859375 11.855469L7.992188 11.671875C8.523438 10.933594 8.878906 10.121094 9.0625 9.269531L9.085938 9.28125 9.152344 8.710938C9.15625 8.699219 9.15625 8.6875 9.15625 8.671875 9.167969 8.582031 9.175781 8.488281 9.183594 8.394531 9.195312 8.261719 9.199219 8.132812 9.199219 8zM8.386719 7.25C8.390625 7.335938 8.390625 7.429688 8.390625 7.519531 8.394531 7.671875 8.398438 7.824219 8.398438 7.980469 7.398438 7.265625 6.800781 6.167969 6.800781 5 6.800781 4.207031 7.070312 3.445312 7.574219 2.804688 8.023438 3.9375 8.320312 5.476562 8.386719 7.25zM2.808594 7.480469C2.8125 7.398438 2.8125 7.316406 2.8125 7.238281 2.878906 5.472656 3.175781 3.9375 3.625 2.804688 4.128906 3.445312 4.398438 4.207031 4.398438 5 4.398438 6.167969 3.800781 7.265625 2.800781 7.980469 2.800781 7.8125 2.804688 7.644531 2.808594 7.480469zM6.226562 19.75C6.929688 20.089844 7.546875 20.988281 7.941406 22.183594 7.71875 22.066406 7.46875 22 7.199219 22 6.480469 22 5.847656 22.484375 5.652344 23.199219L5.542969 23.175781C5.351562 22.484375 4.71875 22 4 22 3.734375 22 3.480469 22.066406 3.257812 22.183594 3.652344 20.988281 4.269531 20.089844 4.972656 19.75L5.199219 19.640625 5.199219 15.601562 6 15.601562 6 19.640625zM7.339844 11.203125L7.207031 11.390625C6.484375 12.394531 6.074219 13.570312 6.007812 14.800781L5.191406 14.800781C5.125 13.570312 4.714844 12.394531 3.992188 11.390625L3.859375 11.203125C3.347656 10.492188 3.015625 9.707031 2.875 8.882812 4.316406 8.042969 5.199219 6.578125 5.199219 5 5.199219 3.898438 4.773438 2.855469 4 2.019531 4.449219 1.246094 4.996094.800781 5.601562.800781 6.203125.800781 6.753906 1.246094 7.199219 2.019531 6.425781 2.855469 6 3.898438 6 5 6 6.578125 6.882812 8.042969 8.324219 8.882812 8.1875 9.703125 7.855469 10.492188 7.339844 11.203125zM21.601562 4.800781L12 4.800781C11.777344 4.800781 11.601562 4.980469 11.601562 5.199219 11.601562 5.421875 11.777344 5.601562 12 5.601562L12.800781 5.601562 12.800781 22.25C12.800781 23.214844 13.585938 24 14.550781 24L19.050781 24C20.015625 24 20.800781 23.214844 20.800781 22.25L20.800781 5.601562 21.601562 5.601562C21.820312 5.601562 22 5.421875 22 5.199219 22 4.980469 21.820312 4.800781 21.601562 4.800781zM20 14L19.199219 14C18.980469 14 18.800781 14.179688 18.800781 14.398438 18.800781 14.621094 18.980469 14.800781 19.199219 14.800781L20 14.800781 20 15.601562 19.199219 15.601562C18.980469 15.601562 18.800781 15.777344 18.800781 16 18.800781 16.222656 18.980469 16.398438 19.199219 16.398438L20 16.398438 20 17.199219 19.199219 17.199219C18.980469 17.199219 18.800781 17.378906 18.800781 17.601562 18.800781 17.820312 18.980469 18 19.199219 18L20 18 20 18.800781 19.199219 18.800781C18.980469 18.800781 18.800781 18.980469 18.800781 19.199219 18.800781 19.421875 18.980469 19.601562 19.199219 19.601562L20 19.601562 20 20.398438 19.199219 20.398438C18.980469 20.398438 18.800781 20.578125 18.800781 20.800781 18.800781 21.019531 18.980469 21.199219 19.199219 21.199219L20 21.199219 20 22.25C20 22.773438 19.574219 23.199219 19.050781 23.199219L14.550781 23.199219C14.027344 23.199219 13.601562 22.773438 13.601562 22.25L13.601562 21.199219 14.398438 21.199219C14.621094 21.199219 14.800781 21.019531 14.800781 20.800781 14.800781 20.578125 14.621094 20.398438 14.398438 20.398438L13.601562 20.398438 13.601562 19.601562 14.398438 19.601562C14.621094 19.601562 14.800781 19.421875 14.800781 19.199219 14.800781 18.980469 14.621094 18.800781 14.398438 18.800781L13.601562 18.800781 13.601562 18 14.398438 18C14.621094 18 14.800781 17.820312 14.800781 17.601562 14.800781 17.378906 14.621094 17.199219 14.398438 17.199219L13.601562 17.199219 13.601562 16.398438 14.398438 16.398438C14.621094 16.398438 14.800781 16.222656 14.800781 16 14.800781 15.777344 14.621094 15.601562 14.398438 15.601562L13.601562 15.601562 13.601562 14.800781 14.398438 14.800781C14.621094 14.800781 14.800781 14.621094 14.800781 14.398438 14.800781 14.179688 14.621094 14 14.398438 14L13.601562 14 13.601562 5.601562 20 5.601562zM20 14"/>
</svg>

<svg xmlns="http://www.w3.org/2000/svg" width="32" height="32" viewBox="0 0 24 24">
    <path d="M5.602 8.8C4.719 8.8 4 9.52 4 10.399 4 11.281 4.719 12 5.602 12c.878 0 1.597-.719 1.597-1.602 0-.878-.719-1.597-1.597-1.597zm0 2.4a.799.799 0 1 1 0 0zm0 0"/>
    <path d="M9.2 8c0-.309-.005-.613-.02-.914C9.09 4.75 8.656 3.03 8.04 1.87l-.227-.45-.024.02C7.156.47 6.375 0 5.602 0 4.824 0 4.043.465 3.41 1.445l-.023-.023-.239.469C2.54 3.055 2.11 4.773 2.02 7.098c-.012.3-.02.609-.02.922 0 .117.008.238.016.367.007.148.023.3.046.449l.051.445.024-.011c.183.847.539 1.66 1.07 2.402l.133.183a5.585 5.585 0 0 1 1.058 3.286v4.011c-1.109.688-1.972 2.332-2.277 4.391L2.055 24h1.144v-.398a.802.802 0 0 1 1.574-.215c.098.367.41.613.774.613h.105a.81.81 0 0 0 .778-.613.8.8 0 0 1 1.57.215V24h1.145l-.067-.457c-.305-2.059-1.164-3.707-2.277-4.39V15.14c0-1.184.363-2.32 1.058-3.286l.133-.183a6.407 6.407 0 0 0 1.07-2.402l.024.011.066-.57c.004-.012.004-.024.004-.04.012-.089.02-.183.028-.276A4.44 4.44 0 0 0 9.199 8zm-.813-.75c.004.086.004.18.004.27.004.152.007.304.007.46-1-.714-1.597-1.812-1.597-2.98 0-.793.27-1.555.773-2.195.45 1.132.746 2.672.813 4.445zm-5.578.23c.003-.082.003-.164.003-.242.067-1.765.364-3.3.813-4.433.504.64.773 1.402.773 2.195 0 1.168-.597 2.266-1.597 2.98 0-.168.004-.335.008-.5zm3.418 12.27c.703.34 1.32 1.238 1.714 2.434A1.582 1.582 0 0 0 7.2 22c-.719 0-1.351.484-1.547 1.2l-.109-.024A1.606 1.606 0 0 0 4 22c-.266 0-.52.066-.742.184.394-1.196 1.012-2.094 1.715-2.434l.226-.11v-4.038H6v4.039zm1.113-8.547l-.133.188a6.404 6.404 0 0 0-1.2 3.41h-.816a6.404 6.404 0 0 0-1.199-3.41l-.133-.188a5.56 5.56 0 0 1-.984-2.32C4.316 8.043 5.199 6.578 5.199 5 5.2 3.898 4.773 2.855 4 2.02 4.45 1.246 4.996.8 5.602.8c.601 0 1.152.446 1.597 1.22C6.426 2.855 6 3.898 6 5c0 1.578.883 3.043 2.324 3.883a5.48 5.48 0 0 1-.984 2.32zm0 0M21.602 4.8H12a.398.398 0 0 0-.398.4c0 .222.175.402.398.402h.8V22.25c0 .965.786 1.75 1.75 1.75h4.5c.966 0 1.75-.785 1.75-1.75V5.602h.802a.401.401 0 0 0 0-.801zM20 14h-.8a.4.4 0 0 0 0 .8h.8v.802h-.8a.398.398 0 1 0 0 .796h.8v.801h-.8a.401.401 0 0 0 0 .801h.8v.8h-.8a.4.4 0 0 0 0 .802h.8v.796h-.8a.401.401 0 0 0 0 .801h.8v1.051a.95.95 0 0 1-.95.95h-4.5a.95.95 0 0 1-.948-.95V21.2h.796a.401.401 0 1 0 0-.802h-.796v-.796h.796a.401.401 0 0 0 0-.8l-.796-.001V18h.796a.401.401 0 1 0 0-.8h-.796v-.802h.796a.398.398 0 1 0 0-.796h-.796V14.8h.796a.401.401 0 0 0 0-.8l-.796-.001V5.602H20zm0 0"/>
</svg>
